X:1
T:Title
%%score { ( 1 3 ) | ( 2 4 ) }
L:1/8
M:3/4
K:F
V:1 treble nm="Grand Piano"
V:3 treble 
V:2 bass 
V:4 bass 
V:1
 z2 z2[Q:1/4=100] F2 | A4 B2 | c4 [Fd]2 | c2 A2 [B,EG]2 | [A,F]4 [CEG]2 | A4 B2 | c4 [DFd]2 | %7
 [CEG]6- |[M:2/4] [CEG]4 |[M:1/4] F2 |[M:3/4] A4 B2 | c4 [Fd]2 | c2 A2 [B,EG]2 | [A,F]4 [Fd]2 | %14
 [Fc]4 F2 | [EA]4 [EG]2 | F6- | F4 z2 | c3 c c2 | Ac- c4 | [Fd]3 [Fd] [Fd]2 | d c3 A2 | %22
 [EG]4 [EG][EG] | [Ec]4 [EB]2 | [FA]6- | [FA]4 z2 | [Ac]3 [Ac] [Ac]2 | [FA] [Ac]3 [Fc]2 | %28
 [Fd]4 [Fd]2 | d c3 A2 | [EG]4 [EG][EG] | [FA]4 [EG]2 | [CF]6- |[M:2/4] [CF]4 |] %34
V:2
 z2 z2 [F,A,]2 | [F,CF]4 [F,G,F]2 | [F,A,F]4 [B,,B,]2 | A,2 C2 C,2 | F,4 C,2 | [F,CF]4 [F,G,F]2 | %6
 [F,A,F]4 B,,2 | C,6- |[M:2/4] C,4 |[M:1/4] [F,A,]2 |[M:3/4] [F,CF]4 [F,G,F]2 | [F,A,F]4 [B,,B,]2 | %12
 A,2 C2 C,2 | D,4 [B,,B,]2 | [C,A,]4 [C,A,]2 | [C,C]4 [C,B,]2 | [F,A,C]6- | [F,A,C]4 z2 | %18
 [F,A,F]3 [F,A,F] [F,A,F]2 | [F,CF][F,A,F]- [F,A,F]4 | [B,,B,]3 [B,,B,] [B,,B,]2 | %21
 [F,B,F] [F,A,F]3 [F,CF]2 | [C,C]4 [C,C][C,C] | [C,G,]4 [C,C]2 | [F,C]6- | [F,C]4 z2 | %26
 [F,F]3 [F,F] [F,F]2 | [F,C] [F,C]3 [F,A,]2 | [B,,B,]4 [B,,B,]2 | [F,B,F] [F,A,F]3 [F,CF]2 | %30
 [C,C]4 [C,C][C,C] | [C,C]4 [C,B,]2 | [F,A,]6- |[M:2/4] [F,A,]4 |] %34
V:3
 x6 | x6 | x6 | F4 z2 | x6 | x6 | x6 | x6 |[M:2/4] x4 |[M:1/4] x2 |[M:3/4] x6 | x6 | F4 z2 | x6 | %14
 x6 | x6 | x6 | x6 | x6 | x6 | x6 | x6 | x6 | x6 | x6 | x6 | x6 | x6 | x6 | x6 | x6 | x6 | x6 | %33
[M:2/4] x4 |] %34
V:4
 x6 | x6 | x6 | C,4 z2 | x6 | x6 | x6 | x6 |[M:2/4] x4 |[M:1/4] x2 |[M:3/4] x6 | x6 | C,4 z2 | x6 | %14
 x6 | x6 | x6 | x6 | x6 | x6 | x6 | x6 | x6 | x6 | x6 | x6 | x6 | x6 | x6 | x6 | x6 | x6 | x6 | %33
[M:2/4] x4 |] %34

